symbols/web/select_all/materialsymbolssharp/select_all_wght200gradN25_24px.svg

<svg xmlns="http://www.w3.org/2000/svg" height="24" width="24"><path d="M4.15 5.05v-.9h.9v.9Zm0 7.95v-1.975h.9V13Zm2.9 6.875v-.925h1.975v.925Zm-2.9-10.85V7.05h.9v1.975Zm6.875-3.975v-.9H13v.9Zm7.925 0v-.9h.925v.9ZM4.15 19.875v-.925h.9v.925Zm0-2.9v-2h.9v2ZM7.05 5.05v-.9h1.975v.9Zm3.975 14.825v-.925H13v.925ZM18.95 13v-1.975h.925V13Zm0 6.875v-.925h.925v.925Zm0-11.025v-2h.925v2Zm0 8.3v-1.975h.925v1.975Zm-3.975 2.725v-.925h2v.925Zm0-14.825v-.9h2v.9ZM8.05 15.975V8.05h7.925v7.925Zm.925-.925h6.075V8.975H8.975Z"/></svg>

<svg xmlns="http://www.w3.org/2000/svg" height="24" width="24"><path d="M4.15 5.05V4.15H5.05V5.05ZM4.15 13V11.025H5.05V13ZM7.05 19.875V18.95H9.025V19.875ZM4.15 9.025V7.05H5.05V9.025ZM11.025 5.05V4.15H13V5.05ZM18.95 5.05V4.15H19.875V5.05ZM4.15 19.875V18.95H5.05V19.875ZM4.15 16.975V14.975H5.05V16.975ZM7.05 5.05V4.15H9.025V5.05ZM11.025 19.875V18.95H13V19.875ZM18.95 13V11.025H19.875V13ZM18.95 19.875V18.95H19.875V19.875ZM18.95 8.85V6.85H19.875V8.85ZM18.95 17.15V15.175H19.875V17.15ZM14.975 19.875V18.95H16.975V19.875ZM14.975 5.05V4.15H16.975V5.05ZM8.05 15.975V8.05H15.975V15.975ZM8.975 15.05H15.05V8.975H8.975Z"/></svg>
